X: 7787
T: Come In From The Rain
R: slide
M: 12/8
K: Edorian
|:~B2E EFE|e2B ~A2G|~F2D DED|~F2G ~A2=c|
~B2E EFE|dcd e2f|~g2e fed|1 Bcd edc:|2 Bcd e3||
|:gfe {a}b2e|gfe {a}b2e|~f2d ~B2g|~f2g agf|
gfe {a}b2e|gfe {a}b2e|~f2d Bcd|1 ~e3 efe:|2 ~e3 edc||

